X:2

T:Whip Her and Gird Her

M:6/8

L:1/8

R:Jig

S:Joyce – Old Irish Folk Music and Songs, No. 722  (1909)

Z:AK/Fiddler’s Companion

K:G

G>AG GB/c/d/B/|G>AG B2A|G>AG GB/c/d/B/|AFA c2A|

G>AG GB/c/d/B/|GAB gdB|cgc BgB|AFA c2A::g3 def|

Gfd dcB|gf/e/f/g/ def|AFA c2A|g3 def|gfe dcB|

cGc BgB|AFA c2A::BGG ADD|BGG B/c/d/c/B/A/|

BGG ADD|AFA c2A|BGG ADD|BGB gdB|cGc BgB|

AFA c2A::gdB gdB|GAB d2B|gdB gdB|AFA c2A|

dBG dBG|GAB gdB|cGc BgB|AFA c2A||

 

WHIP HER BELOW THE COVERING. Scottish. An 18th century tune with a bawdy or risque title.

 

WHIP THE CAT FROM UNDER THE TABLE. AKA and see "Drive the Cat from under the Table," "Dance Light for My Heart Lies Under Your Feet," "Peas on the Hearth," "The Humours of Partenn," "Foxy Mary," "Huish the Cat," "Humours of Panteen/Purteen/Parteen," "Bimid ag Ol [1]," "Gilibeart Mhac Fhlannchadha," "Pis ar an Iarta."

 


WHIP(PING) THE DEVIL AROUND THE STUMP. AKA and see "Booger Man," "Chasing the Devil Around the Stump," "Hummingbird Reel." Old‑Time, Breakdown. USA, Eastern Tenn., Western N.C. Broadway Records A1964 (78 RPM), 1924?, J. Dedrick Harris {Harris was a legendary fiddler, born in Tennessee, who played regularly with Bob Taylor while he was running for Governor of the state in the late 1800's. He moved to western North Carolina in the 1920's and influenced a generation of fiddlers there: Osey Helton, Bill Hensley, Manco Sneed and Marcus Martin, to name a few of the outstanding ones}. In the repertoire of Osey Helton.

 

WHIPMAN'S RANT, THE. AKA – “Is your Graith in order.” Scottish, Strathspey. D Major. Standard tuning. AB (Atole): AABB (Gow). The tune appears in Gow’s Repository as “Is your Graith in order, or the whipman’s Rant.” Six measures to each part. Gow (Complete Repository), Part 1, 1799; pg. 4. Stewart-Robertson (The Athole Collection), 1884; pg. 100.

